X: 1809
T: Sun da İçsin Yâr Elinden
C: Bîmen Şen
O: Turkey
F: http://compmusic.upf.edu/node/140
N: segah--sarki--agiraksak--sun_da_icsin--bimen_sen
N: makam= segah
N: form= sarki
N: usul= agiraksak = 9/4
M: 9/4
L: 1/16
K: C _1/4B _1/4e ^f 
Q: 1/4=78
%%MIDI tuningsystem comma53
G2B4d2 c3B d2c2 B3^A G2A2 B4 GAG2 B4  | \
w:  ARANAĞME  | 
z2d4cB =f3e d2e2 d3c B2c2 d8 z4  | 
w:   | 
e2=f4fe g3f e2d2 d3c B2d2 c2e2 d2c2 B2^A2  | \
w:   | 
G2c4cB =f2ed d3e dcB^A B12 z4  | 
w:   | 
G2B4d2 c3B d2c2 B3^A G2A2 B4 GAG2 B4  | \
w:  ARANAĞME  | 
z2d4cB =f3e d2e2 d3c B2c2 d8 z4  | 
w:   | 
e2=f4fe g3f e2d2 d3c B2d2 c2e2 d2c2 B2^A2  | \
w:   | 
G2c4cB =f2ed d3e dcB^A B12 z4  | 
w:   | 
z8 z2G4cB B8 d8 B4  | c2d2 c2B2 z2B4c2 c2B2 B2^A2 B3A G4 A2B2  | 
w:  Sun  da  *  iç sin   |  *  *  *  *  yâr  e lin *  *  *  den   | 
c3B B4 z2c4d2 d8 d2ef g2=fe d4  | \
w:  *  *  *  â şık_ ı  pey  | 
d2{e}dc B^AB2 B2c4d2 d2cB f2ed d6de dcBc  | 
w:  *  *  *  *  *  *  *  *  mâ *  *  *  *  *  ne *  yi   SAZ  | 
d8 z2d4ef g8 (3gfef2 f4 edc2  | d2e2 e2d2 z2d4e2 =f3e d4 e3d c4 B4  | 
w:  *  Bir  ka *  deh le   |  *  *  *  *  mest_ ü  bî *  *  tâb   | 
c2d2 c2dc B2B4c2 B2A4G2 dcBc d2ed c4  | \
w:  *  *  *  *  *  *  et  dil_ i  *  *  vî  | 
e2de =f2ed d2d4e2 d2c4cB B6de dcBc  | 
w:  *  *  *  *  *  *  *  râ *  *  *  ne *  yi   SAZ  | 
d8 z2d4ef g8 (3gfef2 f4 edc2  | d2e2 e2d2 z2d4e2 =f3e d4 e3d c4 B4  | 
w:  *  Bir  ka *  deh le   |  *  *  *  *  mest_ ü  bî *  *  tâb   | 
c2d2 c2dc B2B4c2 B2A4G2 dcBc d2ed c4  | \
w:  *  *  *  *  *  *  et  dil_ i  *  *  vî  | 
e2de =f2ed d2d4e2 d2c4cB B6ag g^ff^e  | 
w:  *  *  *  *  *  *  *  râ *  *  *  ne *  yi   SAZ  | 
f8 z2^e4gf f8 f2=ed ^cdef d4  | g2f=e e4 e2e4e2 e4 z4 e2g2 =f2_1/4e2 d2^c2  | 
w:  *  Sî ne  *  i  gül   |  *  *  *  *  *  ren gi ni  aç   | 
d3^c B^AB2 B2B4gf f8 a8 f4  | g2a2 g2f2 z2g2 a2b2 a2g4gf f6g2 f2g2  | 
w:  *  *  *  *  *  *  da  u *  tan dır   |  *  *  *  *  lâ *  *  *  *  le *  yi   SAZ  | 
a8 z2g4a2 a8 a2gf c'2ba d'2c'b  | \
w:  *  Sî ne  i  gül   | 
a2g4f2 z2e4f2 g8 g3f g2a2 g2f2  | 
w:  *  *  *  ren gi ni  aç   | 
f2g2 f2e2 z2e4=f2 e2d2 d2c2 d2e^f g2=fe d4  | \
w:  *  *  *  *  da  u tan *  *  *  dır   | 
d2{e}dc B^AB2 z2c4d2 d2cB f2ed d6de dcBc  | 
w:  *  *  *  *  *  *  *  lâ *  *  *  *  *  le *  yi   SAZ  | 
d8 z2d4ef g8 (3gfef2 f4 edc2  | d2e2 e2d2 z2d4e2 =f3e d4 e3d c4 B4  | 
w:  *  Bir  ka *  deh le   |  *  *  *  *  mest_ ü  bî *  *  tâb   | 
c2d2 c2dc B2B4c2 B2A4G2 dcBc d2ed c4  | \
w:  *  *  *  *  *  *  et  dil_ i  *  *  vî  | 
e2de =f2ed d2d4e2 d2c4cB B6de dcBc  | 
w:  *  *  *  *  *  *  *  râ *  *  *  ne *  yi   SAZ  | 
d8 z2d4ef g8 (3gfef2 f4 edc2  | d2e2 e2d2 z2d4e2 =f3e d4 e3d c4 B4  | 
w:  *  Bir  ka *  deh le   |  *  *  *  *  mest_ ü  bî *  *  tâb   | 
c2d2 c2dc B2B4c2 B2A4G2 dcBc d2ed c4  | \
w:  *  *  *  *  *  *  et  dil_ i  *  *  vî  | 
e2de =f2ed d2d4e2 d2c4cB B4 ^ABcA B4  | 
w:  ^ *  *  *  *  *  *  râ *  *  *  ne *  yi   SAZ  | 
|


